packages/paste-icons/svg/ProductDebugger.svg

<svg xmlns="http://www.w3.org/2000/svg" width="20" height="20" viewBox="0 0 20 20">
  <path fill="#707578" fill-rule="evenodd" d="M17.465887,11.6780335 C17.7604081,11.6780335 17.9991646,11.4397609 17.9991646,11.1458368 C17.9991646,10.8519126 17.7604081,10.61364 17.465887,10.61364 L16.3993317,10.61364 C16.3989366,9.99225447 16.3073134,9.37427946 16.1273814,8.77940486 C16.5434161,8.58731914 16.996236,8.48753575 17.454637,8.48693082 L17.465887,8.48693082 C17.7604081,8.48739052 17.999538,8.24949059 18.0000007,7.95556645 C18.0004593,7.66164231 17.7620762,7.42299706 17.4675551,7.42253736 L17.454637,7.42253736 C16.8605696,7.42246459 16.2731269,7.54706944 15.7304437,7.78826296 C15.7245051,7.77634175 15.7190401,7.76412251 15.7130247,7.75221834 C15.7106271,7.74642378 15.707581,7.74135727 15.7050042,7.73563934 C15.1838215,6.71186051 14.3970832,5.84628686 13.4267525,5.22909493 C14.6290462,4.36778774 14.7711668,3.36845852 14.7711668,1.53219673 C14.7711668,1.23827259 14.5324103,1 14.2378892,1 C13.943368,1 13.7046115,1.23827259 13.7046115,1.53219673 C13.7046115,3.43703527 13.578758,3.990175 12.31864,4.66771253 C10.8173841,4.07628737 9.14625146,4.08063965 7.64810908,4.67987642 C6.36699274,3.99682533 6.23872453,3.44833487 6.23872453,1.53223505 C6.23872453,1.23831091 5.999968,1 5.70544689,1 C5.41092578,1 5.17216925,1.23831091 5.17216925,1.53223505 C5.17216925,3.38161868 5.31676428,4.38198249 6.54299143,5.24750468 C5.58627738,5.86378169 4.81055782,6.72237325 4.29502139,7.73563083 C4.29241899,7.7413743 4.28934731,7.74644081 4.2869497,7.75229071 C4.28093433,7.76421192 4.27549489,7.77638007 4.26955631,7.78830553 C3.72687208,7.54711505 3.13943002,7.42251034 2.54536304,7.42257994 L2.53244493,7.42257994 C2.23792382,7.42303964 1.9995407,7.66168489 2.00000066,7.95560902 C2.00046196,8.24953316 2.23959191,8.4874331 2.53411302,8.4869734 C2.53785136,8.48739096 2.54162471,8.48739096 2.54536304,8.4869734 C3.00376402,8.48757833 3.45658387,8.58736171 3.87261857,8.77944743 C3.69269073,9.37430837 3.60106759,9.99226874 3.6006683,10.61364 L2.53411302,10.61364 C2.23959191,10.61364 2.00083538,10.8519126 2.00083538,11.1458368 C2.00083538,11.4397609 2.23959191,11.6780335 2.53411302,11.6780335 L3.69701237,11.6780335 C3.84111982,12.5354794 4.16036395,13.3541934 4.63491123,14.0833115 C4.05406866,14.5904306 3.30877771,14.8703401 2.53703111,14.8712139 L2.53411302,14.8712139 C2.23959191,14.8710963 2.00073989,15.1092736 2.00062208,15.4031977 C2.00050427,15.6971219 2.23916529,15.9354898 2.5336864,15.9356073 L2.53702258,15.9356073 C3.54596093,15.9339099 4.52148086,15.5745461 5.28954579,14.9216278 C6.4964268,16.2454045 8.20665049,17 10.0000007,17 C11.7933324,17 13.5035561,16.2454045 14.7104371,14.9216278 C15.4785043,15.574548 16.4540276,15.9339119 17.4629689,15.9356073 L17.4663136,15.9356073 C17.7608347,15.9354898 17.9994957,15.6971219 17.9993779,15.4031977 C17.9992601,15.1092736 17.7604081,14.8710963 17.465887,14.8712139 L17.4629689,14.8712139 C16.6912223,14.8703401 15.9459313,14.5904306 15.3650888,14.0833115 C15.839636,13.3541934 16.1588802,12.5354794 16.3029876,11.6780335 L17.465887,11.6780335 Z M10,5.29167275 C10.6908728,5.29174062 11.3750676,5.42660858 12.014083,5.68868725 C12.0751782,5.73375491 12.1452858,5.7651574 12.2196338,5.78075728 C13.0238226,6.15094278 13.7235111,6.71431316 14.2560931,7.42045967 L5.74390688,7.42045967 C6.74778606,6.08188687 8.32463915,5.29318602 10,5.29167275 L10,5.29167275 Z M4.66722358,10.61364 C4.66722358,9.88069944 4.81990781,9.15576305 5.11560343,8.48485313 L9.46672236,8.48485313 L9.46672236,15.9086782 C6.74344644,15.6322081 4.67066882,13.34542 4.66722358,10.61364 L4.66722358,10.61364 Z M10.5332776,15.9086782 L10.5332776,8.48485313 L14.8844392,8.48485313 C15.5691321,10.0431322 15.4649059,11.8343579 14.6040812,13.303072 C13.7432565,14.7717861 12.2298905,15.7404488 10.5332776,15.9086782 Z"/>
</svg>

<svg xmlns="http://www.w3.org/2000/svg" width="20" height="20" fill="none" viewBox="0 0 20 20">
  <path fill="#606B85" fill-rule="evenodd" d="M17.466 11.678a.533.533 0 1 0 0-1.064h-1.067a6.35 6.35 0 0 0-.272-1.835 3.176 3.176 0 0 1 1.328-.292h.01a.533.533 0 1 0 .003-1.064h-.013c-.594 0-1.182.124-1.725.365l-.017-.036-.008-.016a6.426 6.426 0 0 0-2.278-2.507c1.202-.861 1.344-1.86 1.344-3.697a.533.533 0 0 0-1.066 0c0 1.905-.126 2.458-1.386 3.136a6.33 6.33 0 0 0-4.67.012c-1.282-.683-1.41-1.232-1.41-3.148a.533.533 0 0 0-1.067 0c0 1.85.145 2.85 1.371 3.715a6.427 6.427 0 0 0-2.248 2.489l-.008.016-.017.036a4.244 4.244 0 0 0-1.725-.365h-.013a.533.533 0 1 0 .013 1.064c.459 0 .912.1 1.328.292a6.35 6.35 0 0 0-.272 1.835H2.534a.533.533 0 1 0 0 1.064h1.163c.144.857.463 1.676.938 2.405a3.196 3.196 0 0 1-2.098.788h-.003a.533.533 0 1 0 0 1.065h.003a4.261 4.261 0 0 0 2.753-1.014 6.374 6.374 0 0 0 9.42 0 4.261 4.261 0 0 0 2.753 1.014h.003a.533.533 0 1 0 0-1.065h-.003c-.772 0-1.517-.28-2.098-.788a6.32 6.32 0 0 0 .938-2.405h1.163ZM10 5.292c.69 0 1.375.135 2.014.397a.53.53 0 0 0 .206.092 5.35 5.35 0 0 1 2.036 1.64H5.744A5.326 5.326 0 0 1 10 5.29Zm-5.333 5.322c0-.733.153-1.458.449-2.13h4.35v7.425a5.333 5.333 0 0 1-4.799-5.295Zm5.866 5.295V8.485h4.351a5.306 5.306 0 0 1-.28 4.818 5.327 5.327 0 0 1-4.07 2.606Z" clip-rule="evenodd"/>
</svg>
